X:319
T:Sailing into Walpole's Marsh
Z: id:dc-reel-297
M:C
L:1/8
K:D Mixolydian
dB|A3B A2cA|GEE2 GED2|A3G ABcd|ecdB BAdB|!
AGG2 AGG2|GEDE GED2|A3G ABcd|ecdB BAdB|!
A3G c3A|GEE2 GED2|A3G ABcd|ecdB BAdB|!
AGG2 AGG2|GEDE GED2|A3G ABcd|ecdB BA|]!
z2|egg2 eaaf|gedB cAA2|egg2 eaab|age^c d2ef|!
g3e a3f|gedB cAAB|c2gc acgc|egge d2:|!

